X:0339
T:"I'm Weary Of Life"            (air)                0339
C:after  Sg't.  J. O'Neill
C:slow, with feeling
Q:1/4=70
B:O'Neill's Music Of Ireland (The 1850) Lyon & Healy, Chicago, 1903 edition
Z:FROM O'NEILL'S TO NOTEWORTHY, FROM NOTEWORTHY TO ABC, MIDI AND .TXT BY VINCE BRENNAN June 2003 (HTTP://WWW.SOSYOURMOM.COM)
I:abc2nwc
M:3/4
L:1/8
K:G
"_vb"(ga)|b2a2(g3/2f/2)|(d2B3).d|(e2d2)(BG)|A2(.G2.G2)|
G2(dc)|B2G(A B)c|(d4fg)|(a2b2g2)|
(f2d2e2)|d3(e dc)|(B2G2)(Bc)|{e}d4 (fg)|
a2b2(.g3/2.f/2)|f2(de fa)|g4(ga)|b2a2(g3/2f/2)|
(d2B3d)|(e2d2)(BG)|{B}A2 (.G2.G2)|G4|]
